src/lib/packages/icons/src/assets/line/soundcloud.svg

<svg width="24" height="24" viewBox="0 0 24 24" fill="none" xmlns="http://www.w3.org/2000/svg">
<path d="M22 14.46C22 15.86 20.91 17 19.57 17H12V8.72C12.67 8.27 13.45 8 14.3 8C16.56 8 18.39 9.83 18.56 12.16C20.19 11.38 21.99 12.64 21.99 14.46H22ZM7 17H7.82999V9.94C7.52999 10.05 7.25 10.21 7 10.4V17ZM10.33 10V17H11.16V9.45001C10.97 9.67001 10.79 9.89999 10.64 10.15L10.32 10H10.33ZM8.66 9.75V17H9.48999V9.76001C9.06999 9.70001 8.97 9.72001 8.66 9.76001V9.75ZM5.32999 12.36V17H6.16V11.26C5.9 11.63 5.69999 12.05 5.57999 12.52L5.32001 12.37L5.32999 12.36ZM2.82999 16.41V12.7C2.32999 13.15 2 13.81 2 14.56C2 15.31 2.32999 15.97 2.82999 16.42V16.41ZM3.66 12.23V16.88C4.03 17 4.18999 16.99 4.48999 16.99V12.12C4.23999 12.1 4.05 12.1 3.66 12.22V12.23Z" fill="currentColor"/>
</svg>

<svg xmlns="http://www.w3.org/2000/svg" width="24" height="24" fill="none"><path fill="currentColor" d="M22 14.46c0 1.4-1.09 2.54-2.43 2.54H12V8.72c.67-.45 1.45-.72 2.3-.72 2.26 0 4.09 1.83 4.26 4.16 1.63-.78 3.43.48 3.43 2.3H22ZM7 17h.83V9.94c-.3.11-.58.27-.83.46V17Zm3.33-7v7h.83V9.45c-.19.22-.37.45-.52.7l-.32-.15h.01Zm-1.67-.25V17h.83V9.76c-.42-.06-.52-.04-.83 0v-.01Zm-3.33 2.61V17h.83v-5.74c-.26.37-.46.79-.58 1.26l-.26-.15.01-.01Zm-2.5 4.05V12.7a2.496 2.496 0 0 0 0 3.72v-.01Zm.83-4.18v4.65c.37.12.53.11.83.11v-4.87c-.25-.02-.44-.02-.83.1v.01Z"/></svg>
